X:2323
T:Moirrey ny Cainle 
C:Margot Quayle, Glen Auldyn
C:Traditional
O:Isle of Man
N:Third note in bar 10 given as G in MS.
Z:Collected by Mona Douglas
B:Kiaull Vannin #323 
M:6/8 
L:1/8
Q:160 
K:D 
A|d2A F2A|B2G E2G|A2F DEF|G2E C2A|d2A FGA|B2G E2e|c2A B2c|(d3 d2)d| 
e2c A2e|f2d A2f|g2e f2d|e2c ABc|d2A FGA|B2G E2e|c2A B2c|(d3 d2)|| 

